X: 484
T: Luo meihua
%%abc-version 2.0
%%abcx-abcm2ps-target-version 5.9.1 (29 Sep 2008)
%%abc-creator hum2abc beta
%%abcx-conversion-date 2013/10/02 07:52:30
%%abc-edited-by Helmut Schaffrath
%%humdrum-veritas 4156796855
%%humdrum-veritas-data 1593433104
%%continueall 1
%%barnumbers 0
L: 1/8
M: 4/4
K: G
A2A B A G E D/ E/ [I:setbarnb 1]| 
G2>F2G3z | 
g e d e c e d c | 
A2A B A G E D/ E/ | 
G2>F2G3z | 
A2A GA2A B | 
D4d4 | 
G G G A E D C A, | 
D6z2 |]  



